static/images/xnav-logo-display.svg

<svg height="1024" viewBox="0 0 2048 1024" width="2048" xmlns="http://www.w3.org/2000/svg"><g fill="none" fill-rule="evenodd"><path d="m0 0h2048v1024h-2048z" fill="#f0f0f0"/><g transform="translate(724 212)"><rect fill="#0a0a0a" height="570.703125" rx="285.351562" stroke="#282828" stroke-width="29.296875" width="570.703125" x="14.648438" y="14.648438"/><path d="m224.437846 327.224623v82.353223c0 7.268853-5.880996 13.499299-13.491697 13.499299-7.192113 0-13.027999-6.10646-13.143997-13.28155l-.00176-.217749v-82.353223c0-7.35573 5.962997-13.318727 13.318727-13.318727s13.318727 5.962997 13.318727 13.318727zm-9.340406-149.211664c6.035339 0 9.79582 2.926466 13.486305 7.518767l.351333.442358 146.530326 186.97454c.094281.120304.268237.1414.388541.047118.066939-.052459.106041-.132783.106041-.217829v-45.55329c0-7.35573 5.962997-13.318727 13.318727-13.318727s13.318727 5.962997 13.318727 13.318727v82.353223c0 7.196165-5.085851 12.696091-12.236558 12.807027h-.217317-1.383763c-5.789106 0-9.902138-3.354036-13.988981-8.081131l-.194599-.226129-149.643566-191.47228c-.094121-.12043-.268048-.141757-.388478-.047637-.067111.052451-.106332.132882-.106332.218058v51.228181c0 7.35573-5.962997 13.318727-13.318727 13.318727s-13.318727-5.962997-13.318727-13.318727v-82.491678c0-7.196164 6.103021-13.374585 13.274071-13.499298h.217626zm174.354244-.692272c7.192112 0 13.027998 6.10646 13.143996 13.28155l.00176.217749v83.183949c0 7.35573-5.962997 13.318727-13.318727 13.318727s-13.318727-5.962997-13.318727-13.318727v-83.183949c0-7.196165 5.763965-13.374586 13.2639-13.497435z" fill="#fff" fill-rule="nonzero"/></g></g></svg>

<?xml version="1.0" encoding="UTF-8"?>
<svg width="2048px" height="1024px" viewBox="0 0 2048 1024" version="1.1" xmlns="http://www.w3.org/2000/svg" xmlns:xlink="http://www.w3.org/1999/xlink">
    <!-- Generator: Sketch 63.1 (92452) - https://sketch.com -->
    <title>xnav-logo-display</title>
    <desc>Created with Sketch.</desc>
    <g id="xnav-logo-display" stroke="none" stroke-width="1" fill="none" fill-rule="evenodd">
        <rect fill="#F0F0F0" x="0" y="0" width="2048" height="1024"></rect>
        <g id="xN" transform="translate(724.000000, 212.000000)">
            <rect id="Background" stroke="#282828" stroke-width="29.296875" fill="#0A0A0A" x="14.6484375" y="14.6484375" width="570.703125" height="570.703125" rx="285.351562"></rect>
            <path d="M224.437846,327.224623 L224.437846,409.577846 L224.437846,409.577846 C224.437846,416.846699 218.55685,423.077145 210.946149,423.077145 C203.754036,423.077145 197.91815,416.970685 197.802152,409.795595 L197.800392,409.577846 L197.800392,327.224623 C197.800392,319.868893 203.763389,313.905896 211.119119,313.905896 C218.474849,313.905896 224.437846,319.868893 224.437846,327.224623 Z M215.09744,178.012959 C221.132779,178.012959 224.89326,180.939425 228.583745,185.531726 L228.935078,185.974084 L375.465404,372.948624 C375.559685,373.068928 375.733641,373.090024 375.853945,372.995742 C375.920884,372.943283 375.959986,372.862959 375.959986,372.777913 L375.959986,327.224623 C375.959986,319.868893 381.922983,313.905896 389.278713,313.905896 C396.634443,313.905896 402.59744,319.868893 402.59744,327.224623 L402.59744,409.577846 L402.59744,409.577846 C402.59744,416.774011 397.511589,422.273937 390.360882,422.384873 L390.143565,422.384873 L388.759802,422.384873 C382.970696,422.384873 378.857664,419.030837 374.770821,414.303742 L374.576222,414.077613 L224.932656,222.605333 C224.838535,222.484903 224.664608,222.463576 224.544178,222.557696 C224.477067,222.610147 224.437846,222.690578 224.437846,222.775754 L224.437846,274.003935 C224.437846,281.359665 218.474849,287.322662 211.119119,287.322662 C203.763389,287.322662 197.800392,281.359665 197.800392,274.003935 L197.800392,191.512257 L197.800392,191.512257 C197.800392,184.316093 203.903413,178.137672 211.074463,178.012959 L211.292089,178.012959 L215.09744,178.012959 Z M389.451684,177.320687 C396.643796,177.320687 402.479682,183.427147 402.59568,190.602237 L402.59744,190.819986 L402.59744,274.003935 C402.59744,281.359665 396.634443,287.322662 389.278713,287.322662 C381.922983,287.322662 375.959986,281.359665 375.959986,274.003935 L375.959986,190.819986 L375.959986,190.819986 C375.959986,183.623821 381.723951,177.4454 389.223886,177.322551 L389.451684,177.320687 Z" id="Shape" fill="#FFFFFF" fill-rule="nonzero"></path>
        </g>
    </g>
</svg>
